!!!!SEGMENT: pl-sa--82-a-ii-22--005_anonim--missa-ex-f-benedictus.krn
!!!cenid: 17xx:1535
!!!COM: Anonim
!!!COM-rismID: pe30004985
!!!CDT:
!!!CNT:
!!!OPR: Missa ex F
!!!OTL: Benedictus
!!!OMV: 005
!!!PDT:
!!!AGN: Sacred; Mass
!!!SMS-siglum: PL-SA
!!!SMS-shelfmark: 82/A II 22
!!!SMS-shelfwork: 001-005 M
!!!SMS-variant:
!!!SMS-altvar:
!!!NIFC-rismSourceID: 1001035461
!!!NIFC-islandoraID:
!!!URL-pdf-islandora:
!!!URL-scan: https://bc.bdsandomierz.pl/dlibra/publication/1360/edition/1328/content @EN{Scan in the Sandomierz Diocese Digital Library} @PL{Skany w portalu Cyfrowa Biblioteka Diecezjalna w Sandomierzu}
!!!ONB-nifc: UWAGA: części Mszy: 1. Kyrie, 2. Gloria, 3. Patrem, 4. Sanctus, 5. Benedictus, 6. Agnus Dei
!!!AIN: 1 cbass 2 soprn 2 violn
!!!key: F
**kern	**dynam	**kern	**dynam	**kern	**dynam	**kern	**kern	**text
*part5	*part5	*part4	*part4	*part3	*part3	*part2	*part1	*part1
*group2	*	*group2	*	*group2	*	*group1	*group1	*group1
*staff5	*	*staff4	*	*staff3	*	*staff2	*staff1	*staff1
*I"Baſso.	*	*I"Violino 2do	*	*I"Violino Primo	*	*I"Canto 2do.	*I"Canto =	*
*I'b	*	*I'vl 2	*	*I'vl 1	*	*I'S 2	*I'S 1	*
*Icbass	*	*Ivioln	*	*Ivioln	*	*Isoprn	*Isoprn	*
*ICstr	*	*ICstr	*	*ICstr	*	*ICvox	*ICvox	*
*clefF4	*	*clefG2	*	*clefG2	*	*clefC1	*clefC1	*
*k[b-]	*	*k[b-]	*	*k[b-]	*	*k[b-]	*k[b-]	*
*F:	*	*F:	*	*F:	*	*F:	*F:	*
*M2/4	*	*M2/4	*	*M2/4	*	*M2/4	*M2/4	*
*tremolo	*	*	*	*	*	*	*	*
=1	=1	=1	=1	=1	=1	=1	=1	=1
*2\right	*	*2\right	*	*2\right	*	*2\right	*2\right	*
!	!	!	!	!	!	!	!LO:TX:a:B:t=Ada	!
!LO:TX:a:B:t=Ad=	!	!LO:TX:a:B:t=And.	!	!LO:TX:a:B:t=Andante	!	!LO:TX:a:t=Tacett	!LO:TX:a:t=i2	!
!	!	!	!	!	!	!	!LO:N:vis=00	!
8F\L	.	8.a/L	.	8.cc\L	.	2ryy	0r	.
8F\	.	.	.	.	.	.	.	.
.	.	16g/Jk	.	16b-\Jk	.	.	.	.
8F\	.	8f/L	.	8a/L	.	.	.	.
8F\J	.	8a/J	.	8cc/J	.	.	.	.
=2	=2	=2	=2	=2	=2	=2	=2	=2
8E\L	.	8g/L	.	8b-\L	.	2ryy	.	.
8F\	.	8f/J	.	8a\J	.	.	.	.
8F\	.	8r	.	8r	.	.	.	.
8F\J	.	8a/	.	8ff\	.	.	.	.
=3	=3	=3	=3	=3	=3	=3	=3	=3
*tremolo	*	*	*	*	*	*	*	*
8BB-/L	.	8.b-/L	.	8.dd\L	.	2ryy	.	.
8BB-/	.	.	.	.	.	.	.	.
.	.	16a/Jk	.	16cc\Jk	.	.	.	.
8BB-/	.	8g/L	.	8b-\L	.	.	.	.
8BB-/J	.	8b-/J	.	8dd\J	.	.	.	.
*Xtremolo	*	*	*	*	*	*	*	*
=4	=4	=4	=4	=4	=4	=4	=4	=4
8E\L	.	8g/L	.	8ee\L	.	2ryy	.	.
8F\	.	8a/J	.	8ff\J	.	.	.	.
8F\	.	8r	.	8r	.	.	.	.
8F\J	.	8a/	.	8cc\	.	.	.	.
=5	=5	=5	=5	=5	=5	=5	=5	=5
*	*	*tremolo	*	*	*	*	*	*
!	!	!	!	!	!	!	!LO:N:vis=00	!
8r	.	8b-/L	.	8bb-\L	.	2ryy	0r	.
8C/L	.	8b-/	.	8gg\	.	.	.	.
8C/	.	8b-/	.	8ee\	.	.	.	.
8C/J	.	8b-/J	.	8ee\J	.	.	.	.
!LO:LB:g=original	!	!	!	!	!	!	!	!
=6	=6	=6	=6	=6	=6	=6	=6	=6
8r	.	8a/L	.	8ff\L	.	2ryy	.	.
8F\L	.	8a/	.	8cc\	.	.	.	.
8F\	.	8a/	.	8cc\	.	.	.	.
8F\J	.	8a/J	.	8cc\J	.	.	.	.
*	*	*Xtremolo	*	*	*	*	*	*
=7	=7	=7||:	=7	=7	=7	=7	=7	=7
8E\L	.	8b-/L	.	8cc\L	.	2ryy	.	.
8C\	.	8b-/	.	16bb-\L	.	.	.	.
.	.	.	.	16gg\JJ	.	.	.	.
8F\	.	8g/	.	8ee\L	.	.	.	.
8C\J	.	8g/J	.	8ee\J	.	.	.	.
=8	=8	=8	=8	=8	=8	=8	=8	=8
!	!	!LO:TX:a:t=bis	!	!	!	!	!	!
16r	.	8a/L	.	8ff\L	.	2ryy	.	.
16F'\LL	.	.	.	.	.	.	.	.
16A'\	.	8a/	.	8cc\	.	.	.	.
16c'\JJ	.	.	.	.	.	.	.	.
16r	.	8f/	.	8cc\	.	.	.	.
16F'\LL	.	.	.	.	.	.	.	.
16A'\	.	8f/J	.	8cc\J	.	.	.	.
16c'\JJ	.	.	.	.	.	.	.	.
=9	=9	=9:||	=9	=9	=9	=9	=9	=9
!	!	!LO:TX:t=P:problem=tt. 9-10 zapisane repetycją	!	!	!	!	!LO:N:vis=00	!
16r	.	8b-/Lyy	.	8dd\L	.	2ryy	0r	.
16F'\LL	.	.	.	.	.	.	.	.
16B-'\	.	8b-/yy	.	8dd\	.	.	.	.
16d'\JJ	.	.	.	.	.	.	.	.
16r	.	8g/yy	.	8b-\	.	.	.	.
16C'\LL	.	.	.	.	.	.	.	.
16E'\	.	8g/Jyy	.	8b-\J	.	.	.	.
16G'\JJ	.	.	.	.	.	.	.	.
=10	=10	=10	=10	=10	=10	=10	=10	=10
16r	.	8a/Lyy	.	8cc\L	.	2ryy	.	.
16F'\LL	.	.	.	.	.	.	.	.
16A'\	.	8a/yy	.	8cc\	.	.	.	.
16c'\JJ	.	.	.	.	.	.	.	.
16r	.	8f/yy	.	8a\	.	.	.	.
16F'\LL	.	.	.	.	.	.	.	.
16A'\	.	8f/Jyy	.	8a\J	.	.	.	.
16c'\JJ	.	.	.	.	.	.	.	.
!	!	!	!	!LO:LB:g=original	!	!	!	!
=11	=11	=11	=11	=11	=11	=11	=11	=11
16r	.	8g/L	.	8b-/L	.	2ryy	.	.
16F'\LL	.	.	.	.	.	.	.	.
16B-'\	.	8g/	.	8b-/	.	.	.	.
16d'\JJ	.	.	.	.	.	.	.	.
16r	.	8B-/	.	8g/	.	.	.	.
16C'/LL	.	.	.	.	.	.	.	.
16E'/	.	8G/J	.	8e/J	.	.	.	.
16G'/JJ	.	.	.	.	.	.	.	.
=12	=12	=12	=12	=12	=12	=12	=12	=12
!LO:TX:t=P:problem=mixed beam	!	!	!	!	!	!	!	!
!LO:TX:b:t=Finis	!	!	!	!	!	!	!	!
8F\L	.	4A/	.	4f/	.	2ryy	.	.
8FF/J	.	.	.	.	.	.	.	.
!	!	!LO:TX:b:t=Finis	!	!LO:TX:b:t=Finis.	!	!	!	!
4r;	.	4r;	.	4r;	.	.	.	.
!	!	!LO:LB:g=original	!	!	!	!	!	!
=13||	=13||	=13||	=13||	=13||	=13||	=13||	=13	=13
*tremolo	*	*	*	*	*	*	*	*
!	!	!	!LO:DY:b:t=p.	!	!	!	!	!
8F\L	.	4a/	p	4cc\	p	2ryy	4cc\	Be-
8F\	.	.	.	.	.	.	.	.
8F\	.	8a/L	.	16cc\LL	.	.	16cc\LL	.
.	.	.	.	16b-\	.	.	16b-\JJ	.
8F\J	.	8a/J	.	16a\	.	.	16a\LL	-ne-
.	.	.	.	16cc\JJ	.	.	16cc\JJ	.
*Xtremolo	*	*	*	*	*	*	*	*
=14	=14	=14	=14	=14	=14	=14	=14	=14
8E\L	.	8g/L	.	8b-/L	.	2ryy	8b-\	di-
8F\J	.	8f/J	.	8a/J	.	.	8a\	-ctus
4r	.	4r	.	16f/LL	.	.	4r	.
.	.	.	.	16a/	.	.	.	.
.	.	.	.	16a/	.	.	.	.
.	.	.	.	16cc/JJ	.	.	.	.
=15	=15	=15	=15	=15	=15	=15	=15	=15
4BB-/	.	4b-/	.	4dd\	.	2ryy	4dd\	be-
4r	.	16b-/LL	.	16dd\LL	.	.	16dd\LL	.
.	.	16a/	.	16cc\	.	.	16cc\JJ	.
.	.	16g/	.	16b-\	.	.	16b-\LL	-ne-
.	.	16f/JJ	.	16a\JJ	.	.	16a\JJ	.
!LO:LB:g=original	!	!	!	!	!	!	!	!
=16	=16	=16	=16	=16	=16	=16	=16	=16
8C/L	.	8f/L	.	8a/L	.	2ryy	8a/L	-di-
8CC/J	.	8e/J	.	8g/J	.	.	8g/J	-ctus
4r	.	4r	.	8r	.	.	8r	.
.	.	.	.	8ee\	.	.	8ee\	qvi
=17	=17	=17	=17	=17	=17	=17	=17	=17
!LO:TX:a:t=5.	!	!	!	!LO:TUP:a:problem=klamra łukowa	!	!	!	!
!LO:N:vis=00	!	!	!	!	!	!	!	!
0r	.	8cc\	.	24ee\LL	.	2ryy	24ee\LL	ve-
.	.	.	.	24gg\	.	.	24gg\	.
.	.	.	.	24ee\JJ	.	.	24ee\JJ	.
.	.	4cc\	.	8cc\	.	.	8cc\	-nit
.	.	.	.	16cc\LL	.	.	4r	.
.	.	.	.	16ee\	.	.	.	.
.	.	8cc\	.	16ee\	.	.	.	.
.	.	.	.	16gg\JJ	.	.	.	.
=18	=18	=18	=18	=18	=18	=18	=18	=18
!	!	!	!	!LO:TUP:a:problem=klamra łukowa	!	!	!	!
.	.	8cc\	.	24ff\LL	.	2ryy	24ff\LL	ve-
.	.	.	.	24aa\	.	.	24aa\	.
.	.	.	.	24cc\JJ	.	.	24ff\JJ	.
.	.	4cc\	.	8cc\	.	.	8cc\	-nit
.	.	.	.	16cc\LL	.	.	4r	.
.	.	.	.	16ff\	.	.	.	.
.	.	8cc\	.	16ff\	.	.	.	.
.	.	.	.	16aa\JJ	.	.	.	.
!	!	!	!	!	!	!	!LO:LB:g=original	!
=19	=19	=19	=19	=19	=19	=19	=19	=19
!	!	!	!	!LO:TUP:a:problem=klamra łukowa	!	!	!	!
.	.	8cc\	.	24gg\LL	.	2ryy	24gg\LL	ve-
.	.	.	.	24aa\	.	.	24aa\	.
.	.	.	.	24gg\JJ	.	.	24gg\JJ	.
.	.	4cc\	.	8cc\	.	.	8cc\	-nit
!	!	!	!	!LO:LB:g=original	!	!	!	!
.	.	.	.	16cc\LL	.	.	4r	.
.	.	.	.	16gg\	.	.	.	.
.	.	8cc\	.	16gg\	.	.	.	.
.	.	.	.	16bb-\JJ	.	.	.	.
=20	=20	=20	=20	=20	=20	=20	=20	=20
.	.	8ff\L	.	8aa\L	.	2ryy	8aa\	In
.	.	16ee\L	.	16gg\L	.	.	16gg\LL	no-
.	.	16dd\JJ	.	16ff\JJ	.	.	16ff\JJ	.
.	.	16cc/LL	.	16ee\LL	.	.	16ee\LL	-mi-
.	.	16b-/	.	16dd\	.	.	16dd\JJ	.
.	.	16a/	.	16cc\	.	.	16cc\LL	-ne
.	.	16g/JJ	.	16b-\JJ	.	.	16b-\JJ	.
=21	=21	=21	=21	=21	=21	=21	=21	=21
2r	.	8c/L	.	8a/L	.	2ryy	8a\	no-
.	.	16B-/L	.	16g/L	.	.	16g\	-mi-
.	.	16A/JJ	.	16f/JJ	.	.	16f\	-ne
.	.	4B-/	.	4gT/	.	.	4g/	Do-
!LO:TX:b:t=Seqvitur Benedictus	!	!	!	!	!	!	!	!
!LO:PB:g=original	!	!	!	!	!	!	!	!
=22	=22	=22	=22	=22	=22	=22	=22	=22
!	!	!LO:TX:t=P:problem=mixed beam	!	!	!LO:DY:b:t=for.	!	!	!
8r	.	8A/L	.	16f/LL	f	2ryy	16f/LL	-mi-
.	.	.	.	16a/J	.	.	16f/JJ	-ni
8F\L	.	8a\	.	8cc/J	.	.	8r	.
8A\	.	8a\	.	8cc\L	.	.	4r	.
8F\J	.	8a\J	.	8cc\J	.	.	.	.
!	!	!LO:LB:g=original	!	!	!	!	!	!
=23	=23	=23	=23	=23	=23	=23	=23	=23
!	!	!	!	!	!	!	!LO:TX:a:t=10.	!
!	!	!	!	!	!	!	!LO:N:vis=00	!
4B-\	.	8.b-/L	.	8.dd\L	.	2ryy	0r	.
.	.	16a/Jk	.	16cc\Jk	.	.	.	.
4r	.	16g/LL	.	16b-/LL	.	.	.	.
.	.	16f/	.	16a/	.	.	.	.
.	.	16B-/	.	16g/	.	.	.	.
.	.	16A/JJ	.	16f/JJ	.	.	.	.
=24	=24	=24	=24	=24	=24	=24	=24	=24
8r	.	16G/LL	.	16e/LL	.	2ryy	.	.
.	.	16B-/J	.	16g/J	.	.	.	.
8E\L	.	8g/J	.	8b-/J	.	.	.	.
8G\	.	8g/L	.	8b-/L	.	.	.	.
8E\J	.	8g/J	.	8b-/J	.	.	.	.
=25	=25	=25	=25	=25	=25	=25	=25	=25
4A\	.	8.a/L	.	8.cc\L	.	2ryy	.	.
.	.	16g/Jk	.	16b-\Jk	.	.	.	.
4r	.	16f/LL	.	16a/LL	.	.	.	.
.	.	16B-/	.	16g/	.	.	.	.
.	.	16A/	.	16f/	.	.	.	.
.	.	16G/JJ	.	16e/JJ	.	.	.	.
=26	=26	=26	=26	=26	=26	=26	=26	=26
!	!	!	!	!LO:SIC:v:s=16f/LL	!	!	!	!
8F\	.	16A/LL	.	16e/LL	.	2ryy	.	.
.	.	16c/J	.	16a/J	.	.	.	.
8r	.	8B-/J	.	8g/J	.	.	.	.
8E\	.	16B-/LL	.	16g/LL	.	.	.	.
.	.	16g/J	.	16b-/J	.	.	.	.
8r	.	8f/J	.	8a/J	.	.	.	.
!	!	!	!	!LO:LB:g=original	!	!	!	!
=27	=27	=27	=27	=27	=27	=27	=27	=27
!	!	!	!	!	!	!	!LO:N:vis=00	!
8F\	.	16f/LL	.	16a/LL	.	2ryy	0r	.
.	.	16a/J	.	16cc/J	.	.	.	.
8r	.	8g/J	.	8b-/J	.	.	.	.
8G\	.	16g/LL	.	16b-\LL	.	.	.	.
.	.	16b-/J	.	16dd\J	.	.	.	.
8r	.	8a/J	.	8cc\J	.	.	.	.
=28	=28	=28	=28	=28	=28	=28	=28	=28
*tremolo	*	*	*	*	*	*	*	*
!	!	!LO:TUP:b:problem=klamra łukowa	!	!LO:TUP:a:problem=klamra łukowa	!	!	!	!
8F\L	.	24a/LL	.	24cc\LL	.	2ryy	.	.
.	.	24b-/	.	24dd\	.	.	.	.
.	.	24g/JJ	.	24ee\JJ	.	.	.	.
!	!	!LO:TUP:b:problem=klamra łukowa	!	!LO:TUP:a:problem=klamra łukowa	!	!	!	!
8F\	.	24a/LL	.	24ff\LL	.	.	.	.
.	.	24cc/	.	24ee\	.	.	.	.
.	.	24b-/JJ	.	24dd\JJ	.	.	.	.
8F\	.	8a/L	.	8cc\L	.	.	.	.
8F\J	.	8a/J	.	8cc\J	.	.	.	.
*Xtremolo	*	*	*	*	*	*	*	*
=29	=29	=29	=29	=29	=29	=29	=29	=29
8E\L	.	8.a/L	.	8.cc\L	.	2ryy	.	.
8C\	.	.	.	.	.	.	.	.
.	.	16g/Jk	.	16b-\Jk	.	.	.	.
8E\	.	16f/LL	.	16a/LL	.	.	.	.
.	.	16a/	.	16cc/	.	.	.	.
8C\J	.	16g/	.	16b-/	.	.	.	.
.	.	16f/JJ	.	16a/JJ	.	.	.	.
=30	=30	=30	=30	=30	=30	=30	=30	=30
*tremolo	*	*	*	*	*	*	*	*
!	!	!LO:TUP:b:problem=klamra łukowa	!	!LO:TUP:a:problem=klamra łukowa	!	!	!	!
8F\L	.	24a/LL	.	24cc\LL	.	2ryy	.	.
.	.	24b-/	.	24dd\	.	.	.	.
.	.	24g/JJ	.	24ee\JJ	.	.	.	.
!	!	!LO:TUP:b:problem=klamra łukowa	!	!LO:TUP:a:problem=klamra łukowa	!	!	!	!
8F\	.	24a/LL	.	24ff\LL	.	.	.	.
.	.	24cc/	.	24ee\	.	.	.	.
.	.	24b-/JJ	.	24dd\JJ	.	.	.	.
8F\	.	8a/L	.	8cc\L	.	.	.	.
8F\J	.	8a/J	.	8cc\J	.	.	.	.
*Xtremolo	*	*	*	*	*	*	*	*
!	!	!LO:LB:g=original	!	!	!	!	!	!
=31	=31	=31	=31	=31	=31	=31	=31	=31
!	!	!	!	!	!	!	!LO:N:vis=0	!
8E\L	.	8.a/L	.	8.cc\L	.	2ryy	1r	.
8C\	.	.	.	.	.	.	.	.
.	.	16g/Jk	.	16b-\Jk	.	.	.	.
8E\	.	16f/LL	.	16a/LL	.	.	.	.
.	.	16a/	.	16cc/	.	.	.	.
8C\J	.	16g/	.	16b-/	.	.	.	.
.	.	16e/JJ	.	16a/JJ	.	.	.	.
=32	=32	=32	=32	=32	=32	=32	=32	=32
!LO:TX:t=P:problem=mixed beam	!	!	!	!LO:TX:t=P:problem=mixed beam	!	!	!	!
8F\L	.	8f/L	.	8f/L	.	2ryy	.	.
8C/	.	8a/	.	8ff\	.	.	.	.
8FF/J	.	8a/J	.	8ff\J	.	.	.	.
8r	.	8r	.	8r	.	.	.	.
!LO:LB:g=original	!	!	!	!	!	!	!	!
=33	=33	=33	=33	=33	=33	=33	=33	=33
*tremolo	*	*	*	*	*	*	*	*
!	!LO:DY:a	!	!	!	!LO:DY:b:t=p.	!	!	!
8F\L	f	8a/L	.	8cc\L	p	2ryy	8cc\	Be-
8F\	.	8a/J	.	8cc\J	.	.	8cc\	-ne-
8F\	.	16a/LL	.	16cc\LL	.	.	16cc\LL	-di-
.	.	16a/	.	16ff\	.	.	16ff\JJ	ctus
8F\J	.	16cc/	.	16ee\	.	.	16ee\LL	qvi
.	.	16b-/JJ	.	16dd\JJ	.	.	16dd\JJ	.
*Xtremolo	*	*	*	*	*	*	*	*
=34	=34	=34	=34	=34	=34	=34	=34	=34
8E\L	.	8b-/L	.	8dd\L	.	2ryy	8dd\L	ve-
8F\	.	8a/J	.	8cc\J	.	.	8cc\J	-nit
8A\	.	8r	.	8r	.	.	4r	.
8F\J	.	8a/	.	8cc\	.	.	.	.
!	!	!	!	!LO:LB:g=original	!	!	!LO:LB:g=original	!
=35	=35	=35	=35	=35	=35	=35	=35	=35
*	*	*tremolo	*	*	*	*	*	*
8C/L	.	8g/L	.	8b-\L	.	2ryy	8b-\	be-
8C/	.	8g/	.	8b-\J	.	.	8b-\	-ne-
8E/	.	8g/	.	16b-\LL	.	.	16b-\LL	-di-
.	.	.	.	16gg\	.	.	16gg\JJ	-ctus
8C/J	.	8g/J	.	16ee\	.	.	16ee\LL	qvi
.	.	.	.	16b-\JJ	.	.	16b-\JJ	.
*	*	*Xtremolo	*	*	*	*	*	*
=36	=36	=36	=36	=36	=36	=36	=36	=36
8C\L	.	8g/L	.	8b-/L	.	2ryy	8b-\	ve-
8F\	.	8f/J	.	8a/J	.	.	8a\	-nit
8F\	.	8r	.	8r	.	.	4r	.
8F\J	.	8a/	.	8cc\	.	.	.	.
=37	=37	=37	=37	=37	=37	=37	=37	=37
*tremolo	*	*tremolo	*	*	*	*	*	*
8F\L	.	8f/L	.	(16cc/LL	.	2ryy	16cc\LL	In
.	.	.	.	16a/	.	.	16a\JJ	.
8F\	.	8f/	.	16a/	.	.	16a/LL	no-
.	.	.	.	16f/JJ)	.	.	16f/JJ	.
8F\	.	8f/	.	16f/LL	.	.	16f/LL	-mi-
.	.	.	.	16a/	.	.	16a/JJ	.
8F\J	.	8f/J	.	16cc/	.	.	16cc\LL	-ne
.	.	.	.	16ee-X/JJ	.	.	16ee-X\JJ	.
*Xtremolo	*	*Xtremolo	*	*	*	*	*	*
=38	=38	=38	=38	=38	=38	=38	=38	=38
8B-\L	.	16b-/LL	.	16dd\LL	.	2ryy	16dd\LL	Do-
.	.	16e/	.	16cc\	.	.	16cc\JJ	.
8F\	.	16d/	.	16b-\	.	.	16b-\LL	-mi-
.	.	16c/JJ	.	16a\JJ	.	.	16a\JJ	.
8D\	.	4d/	.	4b-/	.	.	4b-\	-ni.
8BB-\J	.	.	.	.	.	.	.	.
=39	=39	=39	=39	=39	=39	=39	=39	=39
*tremolo	*	*tremolo	*	*	*	*	*	*
8G\L	.	8g/L	.	16dd\LL	.	2ryy	16dd\LL	In
.	.	.	.	16bn\	.	.	16bn\JJ	.
8G\	.	8g/	.	16b\	.	.	16b\LL	no-
.	.	.	.	16g\JJ	.	.	16g\JJ	.
8G\	.	8g/	.	16g/LL	.	.	16g/LL	-mi-
.	.	.	.	16b/	.	.	16b/JJ	.
8G\J	.	8g/J	.	16dd/	.	.	16dd\LL	-ne
.	.	.	.	16ff/JJ	.	.	16ff\JJ	.
*Xtremolo	*	*Xtremolo	*	*	*	*	*	*
=40	=40	=40	=40	=40	=40	=40	=40	=40
8c\L	.	16g/LL	.	16ee\LL	.	2ryy	16ee\LL	Do-
.	.	16f/	.	16dd\	.	.	16dd\JJ	.
8G\	.	16en/	.	16cc\	.	.	16cc\LL	-mi-
!	!	!	!	!LO:SIC:v:s=16bn\JJ	!	!	!	!
.	.	16d/JJ	.	16b-\JJ	.	.	16bn\JJ	.
8E\	.	4e/	.	4cc\	.	.	4cc\	-ni
8C\J	.	.	.	.	.	.	.	.
!	!	!	!	!	!	!	!LO:LB:g=original	!
=41	=41	=41	=41	=41	=41	=41	=41	=41
*	*	*^	*	*	*	*	*	*
8C\L	.	8b-/	8g\	.	(32gg\LLL	.	2ryy	32gg\LLL	O-
.	.	.	.	.	32aa\	.	.	32aa\	.
.	.	.	.	.	32gg\	.	.	32gg\	.
.	.	.	.	.	32ff\JJ)	.	.	32ff\JJ	.
8c\	.	4b-/	4g\	.	8ee|\J	.	.	8ee\J	.
8c\	.	.	.	.	(32ee\LLL	.	.	32ee\LLL	-san-
.	.	.	.	.	32ff\	.	.	32ff\	.
.	.	.	.	.	32ee\	.	.	32ee\	.
.	.	.	.	.	32dd\JJ)	.	.	32dd\JJ	.
8c\J	.	8b-/	8g\	.	8cc|\J	.	.	8cc\J	.
!	!	!LO:LB:g=original	!	!	!LO:LB:g=original	!	!	!	!
=42	=42	=42	=42	=42	=42	=42	=42	=42	=42
8B-\L	.	8b-/	8g\	.	8.b-X\L	.	2ryy	4b-\	-na
8G\	.	8r	8ryy	.	.	.	.	.	.
.	.	.	.	.	16ee\Jk	.	.	.	.
8E\	.	4r	4ryy	.	16ee\LL	.	.	4r	.
.	.	.	.	.	16ff\	.	.	.	.
8C\J	.	.	.	.	16gg\	.	.	.	.
.	.	.	.	.	16b-\JJ	.	.	.	.
=43	=43	=43	=43	=43	=43	=43	=43	=43	=43
8C\L	.	8cc/	8a\	.	(32aa\LLL	.	2ryy	32aa\LLL	O-
.	.	.	.	.	32bb-\	.	.	32bb-\	.
.	.	.	.	.	32aa\	.	.	32aa\	.
.	.	.	.	.	32gg\JJ)	.	.	32gg\JJ	.
!	!	!	!	!	!LO:TX:a:t=	!	!	!	!
8c\	.	4cc/	4a\	.	8ff|\J	.	.	8ff\J	.
8c\	.	.	.	.	(32cc\LLL	.	.	32cc\LLL	-san-
.	.	.	.	.	32dd\	.	.	32dd\	.
.	.	.	.	.	32cc\	.	.	32cc\	.
.	.	.	.	.	32b-\JJ)	.	.	32b-\JJ	.
8c\J	.	8cc/	8a\	.	8a|\J	.	.	8a\J	.
=44	=44	=44	=44	=44	=44	=44	=44	=44	=44
8A\L	.	8cc/	8a\	.	8.cc\L	.	2ryy	4cc\	-na
8F\	.	8r	8ryy	.	.	.	.	.	.
.	.	.	.	.	16ff\Jk	.	.	.	.
8C\	.	4r	4ryy	.	16ff\LL	.	.	4r	.
.	.	.	.	.	16gg\	.	.	.	.
8F\J	.	.	.	.	16aa\	.	.	.	.
.	.	.	.	.	16cc\JJ	.	.	.	.
*	*	*v	*v	*	*	*	*	*	*
!LO:LB:g=original	!	!	!	!	!	!	!	!
=45	=45	=45	=45	=45	=45	=45	=45	=45
*	*	*tremolo	*	*	*	*	*	*
8r	.	8eL 8c/	.	32gg\LLL	.	2ryy	32gg\LLL	O-
.	.	.	.	(32aa\	.	.	32aa\	.
.	.	.	.	32gg\	.	.	32gg\	.
.	.	.	.	32ff\JJJ	.	.	32ff\JJJ	.
8C/L	.	8e 8c/	.	32ee\LLL)	.	.	32ee\LLL	.
.	.	.	.	(32ff\	.	.	32ff\	.
.	.	.	.	32ee\	.	.	32ee\	.
.	.	.	.	32dd\JJJ)	.	.	32dd\JJJ	.
8E/	.	8e 8c/	.	(32cc\LLL	.	.	32cc\LLL	.
.	.	.	.	32dd\	.	.	32dd\	.
.	.	.	.	32cc\	.	.	32cc\	.
.	.	.	.	32b-\JJJ)	.	.	32b-\JJJ	.
8G/J	.	8eJ 8c/	.	32a/LLL	.	.	32a\LLL	.
.	.	.	.	(32b-/	.	.	32b-\	.
.	.	.	.	32a/	.	.	32a\	.
.	.	.	.	32g/JJJ)	.	.	32g\JJJ	.
*	*	*Xtremolo	*	*	*	*	*	*
=46	=46	=46	=46	=46	=46	=46	=46	=46
4F\	.	16f/LL	.	16f/LL	.	2ryy	16f/LL	-san-
.	.	16f/	.	16a/	.	.	16a/JJ	.
.	.	16a/	.	16cc/	.	.	16cc\LL	.
.	.	16cc/JJ	.	16ee-X/JJ	.	.	16ee-X\JJ	.
4r	.	8.cc\L	.	8.ee-\L	.	.	8.ee-\	.
.	.	16a\Jk	.	16cc\Jk	.	.	16cc\	-na
!	!	!	!	!	!	!	!LO:PB:g=original	!
=47	=47	=47	=47	=47	=47	=47	=47	=47
8r	.	8a\L	.	8cc#X\L	.	2ryy	8cc#X\L	In
!LO:TX:t=P:problem=mixed beam	!	!	!	!	!	!	!	!
8B-\L	.	8b-\J	.	8dd\J	.	.	8dd\J	ne-
8BB-/	.	4b-T\	.	4ddT\	.	.	4dd\	-xel-
8B-\J	.	.	.	.	.	.	.	.
!	!	!	!	!LO:LB:g=original	!	!	!	!
=48	=48	=48	=48	=48	=48	=48	=48	=48
8B-\L	.	4g/	.	4een\	.	2ryy	4ee\	-cis
8G\	.	.	.	.	.	.	.	.
8E\	.	8g/L	.	8ee\L	.	.	8ee\	in
8G\J	.	8g/J	.	8ee\J	.	.	8ee\	ne-
=49	=49	=49	=49	=49	=49	=49	=49	=49
8B-\L	.	4g/	.	4ee\	.	2ryy	4ee\	-xel-
8G\	.	.	.	.	.	.	.	.
8E\	.	8g/L	.	8ee\L	.	.	8ee\	.
8G\J	.	8g/J	.	8ee\J	.	.	8ee\	-cis
=50	=50	=50	=50	=50	=50	=50	=50	=50
8F\L	.	8a/L	.	8ff\L	.	2ryy	8ff\	o-
8C\J	.	8a/J	.	8ff\J	.	.	8ff\	-ſsan-
8FF/	.	4a/	.	4ff\	.	.	4ff\	-na
8r	.	.	.	.	.	.	.	.
!LO:TX:b:t=Da Capo ad Finis.	!	!LO:TX:b:t=Da Capo ad\nFinis.	!	!LO:TX:b:t=Benedictus D. C. ad Finis	!	!	!	!
=51||	=51||	=51||	=51||	=51||	=51||	=51||	=51||	=51||
!	!	!	!	!	!	!	!LO:TX:a:t=12.	!
!	!	!	!	!	!	!	!LO:N:vis=00	!
2ryy	.	2ryy	.	2ryy	.	2ryy	0r	.
=52	=52	=52	=52	=52	=52	=52	=52	=52
2ryy	.	2ryy	.	2ryy	.	2ryy	.	.
=53	=53	=53	=53	=53	=53	=53	=53	=53
2ryy	.	2ryy	.	2ryy	.	2ryy	.	.
=54	=54	=54	=54	=54	=54	=54	=54	=54
2ryy	.	2ryy	.	2ryy	.	2ryy	.	.
=55	=55	=55	=55	=55	=55	=55	=55	=55
!	!	!	!	!	!	!	!LO:N:vis=00	!
2ryy	.	2ryy	.	2ryy	.	2ryy	0r	.
=56	=56	=56	=56	=56	=56	=56	=56	=56
2ryy	.	2ryy	.	2ryy	.	2ryy	.	.
=57	=57	=57	=57	=57	=57	=57	=57	=57
2ryy	.	2ryy	.	2ryy	.	2ryy	.	.
=58	=58	=58	=58	=58	=58	=58	=58	=58
2ryy	.	2ryy	.	2ryy	.	2ryy	.	.
=59	=59	=59	=59	=59	=59	=59	=59	=59
!	!	!	!	!	!	!	!LO:N:vis=00	!
2ryy	.	2ryy	.	2ryy	.	2ryy	0r	.
=60	=60	=60	=60	=60	=60	=60	=60	=60
2ryy	.	2ryy	.	2ryy	.	2ryy	.	.
=61	=61	=61	=61	=61	=61	=61	=61	=61
2ryy	.	2ryy	.	2ryy	.	2ryy	.	.
=62	=62	=62	=62	=62	=62	=62	=62	=62
2ryy	.	2ryy	.	2ryy	.	2ryy	.	.
==	==	==	==	==	==	==	==	==
*-	*-	*-	*-	*-	*-	*-	*-	*-
!!!system-decoration: [(g1)][(g2)]
!!!RDF**kern: | = vertical stroke
!!!ENC: Katarzyna Serwa
!!!END: 2022-03-21
!!!ENC: Krzysztof Stępień
!!!END: 2021-02-02
